dist/flags/l/833.svg

<svg width="32" height="24" viewBox="0 0 32 24" fill="none" xmlns="http://www.w3.org/2000/svg">
<mask id="mask0" mask-type="alpha" maskUnits="userSpaceOnUse" x="0" y="0" width="32" height="24">
<rect width="32" height="24" fill="white"/>
</mask>
<g mask="url(#mask0)">
<path fill-rule="evenodd" clip-rule="evenodd" d="M0 0V24H32V0H0Z" fill="#E31D1C"/>
<mask id="mask1" mask-type="alpha" maskUnits="userSpaceOnUse" x="0" y="0" width="32" height="24">
<path fill-rule="evenodd" clip-rule="evenodd" d="M0 0V24H32V0H0Z" fill="white"/>
</mask>
<g mask="url(#mask1)">
<path fill-rule="evenodd" clip-rule="evenodd" d="M6.09358 4.14096C6.0859 4.04844 6.1966 4.00358 6.25922 4.07212C6.70835 4.56377 7.8954 5.78775 8.58188 5.78775C9.44089 5.78775 12.8145 2.94511 13.8116 3.40818C14.8088 3.87125 16.8277 8.71288 16.8277 8.71288L15.5121 10.3631L13.8116 9.43552L13.4903 5.78775C13.4903 5.78775 10.2172 7.47123 8.58188 6.86016L7.6626 7.63263C7.6626 7.63263 6.77731 5.87962 6.4287 5.34345C6.19803 4.98868 6.11999 4.45887 6.09358 4.14096Z" fill="#F7FCFF"/>
<path fill-rule="evenodd" clip-rule="evenodd" d="M8.26195 8.12437L7.70216 8.46353L7.80907 7.74517L7.35618 7.23642L7.98205 7.13162L8.26195 6.47803L8.54185 7.13162L9.16772 7.23642L8.71484 7.74517L8.82175 8.46353L8.26195 8.12437Z" fill="#FECA00"/>
<path fill-rule="evenodd" clip-rule="evenodd" d="M13.0127 3.79191C13.0127 3.59159 13.1751 3.4292 13.3754 3.4292C13.5757 3.4292 13.7381 3.59159 13.7381 3.79191V5.50551C13.7381 5.70583 13.5757 5.86822 13.3754 5.86822C13.1751 5.86822 13.0127 5.70583 13.0127 5.50551L13.0127 3.79191Z" fill="#FECA00"/>
<path fill-rule="evenodd" clip-rule="evenodd" d="M25.2202 5.10343C25.3028 5.14594 25.2822 5.2636 25.1909 5.28038C24.5359 5.40073 22.8689 5.7588 22.5051 6.34097C22.0499 7.06945 22.6729 11.4368 21.7517 12.037C20.8306 12.6373 15.6548 11.7837 15.6548 11.7837L14.9525 9.7935L16.6403 8.84303L19.904 10.5035C19.904 10.5035 20.2108 6.83569 21.5956 5.77268L21.4277 4.58374C21.4277 4.58374 23.3835 4.76192 24.0229 4.75041C24.446 4.74279 24.9367 4.95736 25.2202 5.10343Z" fill="#F7FCFF"/>
<path fill-rule="evenodd" clip-rule="evenodd" d="M20.693 4.83135L20.702 4.17689L21.2546 4.64823L21.926 4.53376L21.6832 5.12007L22.0892 5.70378L21.3866 5.5948L20.966 6.07003L20.7746 5.41637L20.1087 5.12636L20.693 4.83135Z" fill="#FECA00"/>
<path fill-rule="evenodd" clip-rule="evenodd" d="M21.9143 11.2048C22.0939 11.3162 22.1528 11.55 22.0474 11.7332C21.9344 11.9297 21.6786 11.9896 21.4901 11.8637L19.9415 10.8294C19.8025 10.7366 19.7456 10.5605 19.8039 10.4039C19.8833 10.1905 20.1382 10.1033 20.3317 10.2233L21.9143 11.2048Z" fill="#FECA00"/>
<path fill-rule="evenodd" clip-rule="evenodd" d="M14.8625 20.9836C14.7844 21.0339 14.6928 20.9572 14.7239 20.8697C14.9472 20.2423 15.4706 18.6196 15.1483 18.0135C14.745 17.255 10.6513 15.6109 10.592 14.513C10.5328 13.4152 13.8599 9.3596 13.8599 9.3596L15.9346 9.74648L15.9139 11.6834L12.844 13.6796C12.844 13.6796 15.867 15.7792 16.0952 17.51L17.2088 17.959C17.2088 17.959 16.0766 19.5637 15.7669 20.1232C15.5619 20.4934 15.1308 20.8111 14.8625 20.9836Z" fill="#F7FCFF"/>
<path fill-rule="evenodd" clip-rule="evenodd" d="M17.3616 17.1989L17.9239 17.534L17.2394 17.7768L17.0028 18.4155L16.6165 17.9121L15.908 17.9718L16.3537 17.4179L16.1524 16.8161L16.8142 16.9771L17.3983 16.5454L17.3616 17.1989Z" fill="#FECA00"/>
<path fill-rule="evenodd" clip-rule="evenodd" d="M11.1034 14.9572C10.8804 15.0424 10.6323 14.9178 10.5674 14.688C10.5104 14.4866 10.6157 14.2749 10.8107 14.1988L12.479 13.5478C12.6644 13.4754 12.875 13.5455 12.98 13.7145C13.1172 13.9351 13.0192 14.226 12.7765 14.3186L11.1034 14.9572Z" fill="#FECA00"/>
<path d="M13.6626 9.76489C13.5382 9.7214 13.4717 9.5828 13.5142 9.4553C13.5566 9.32781 13.756 9.11486 13.8805 9.15835L15.6162 9.76489C15.7058 9.79618 15.7688 9.87884 15.7766 9.97543L15.9319 11.8793C15.9428 12.0135 15.7473 12.1221 15.6162 12.1333C15.4852 12.1445 15.3701 12.0448 15.3592 11.9106L15.2154 10.2733L13.6626 9.76489Z" fill="#FECA00"/>
<path d="M16.6806 8.76749C16.7844 8.68473 16.9696 8.78065 17.0504 8.88693C17.1312 8.99322 17.1126 9.14646 17.0089 9.22922L15.8064 10.4616C15.7027 10.5444 15.4693 10.383 15.3886 10.2767C15.3078 10.1704 15.2848 9.88088 15.3886 9.79812L16.6806 8.76749Z" fill="#FECA00"/>
</g>
</g>
</svg>

<svg width="32" height="24" fill="none" xmlns="http://www.w3.org/2000/svg">
  <mask id="a" maskUnits="userSpaceOnUse" x="0" y="0" width="32" height="24">
    <path fill="#fff" d="M0 0h32v24H0z"/>
  </mask>
  <g mask="url(#a)">
    <path fill-rule="evenodd" clip-rule="evenodd" d="M0 0v24h32V0H0z" fill="#E31D1C"/>
    <mask id="b" maskUnits="userSpaceOnUse" x="0" y="0" width="32" height="24">
      <path fill-rule="evenodd" clip-rule="evenodd" d="M0 0v24h32V0H0z" fill="#fff"/>
    </mask>
    <g mask="url(#b)">
      <path fill-rule="evenodd" clip-rule="evenodd" d="M6.094 4.141c-.008-.093.103-.137.165-.069.45.492 1.636 1.716 2.323 1.716.859 0 4.232-2.843 5.23-2.38.997.463 3.016 5.305 3.016 5.305l-1.316 1.65-1.7-.927-.322-3.648S10.217 7.47 8.582 6.86l-.92.773S6.778 5.88 6.43 5.343c-.231-.354-.31-.884-.335-1.202z" fill="#F7FCFF"/>
      <path fill-rule="evenodd" clip-rule="evenodd" d="M8.262 8.124l-.56.34.107-.719-.453-.509.626-.104.28-.654.28.654.626.104-.453.51.107.718-.56-.34zm4.751-4.332a.363.363 0 01.725 0v1.714a.363.363 0 01-.725 0V3.792z" fill="#FECA00"/>
      <path fill-rule="evenodd" clip-rule="evenodd" d="M25.22 5.103c.083.043.062.16-.03.177-.654.12-2.321.479-2.685 1.061-.455.728.168 5.096-.753 5.696-.921.6-6.097-.253-6.097-.253l-.703-1.99 1.688-.951 3.264 1.66s.307-3.667 1.692-4.73l-.168-1.19s1.955.179 2.595.167c.423-.007.914.207 1.197.353z" fill="#F7FCFF"/>
      <path fill-rule="evenodd" clip-rule="evenodd" d="M20.693 4.831l.009-.654.553.471.671-.114-.243.586.406.584-.702-.11-.421.476-.191-.654-.666-.29.584-.295zm1.221 6.374a.392.392 0 11-.424.659l-1.549-1.035a.36.36 0 01.39-.606l1.583.982z" fill="#FECA00"/>
      <path fill-rule="evenodd" clip-rule="evenodd" d="M14.863 20.984c-.079.05-.17-.027-.139-.114.223-.628.747-2.25.424-2.857-.403-.758-4.497-2.402-4.556-3.5-.06-1.098 3.268-5.153 3.268-5.153l2.075.386-.021 1.937-3.07 1.997s3.023 2.1 3.251 3.83l1.114.449s-1.132 1.605-1.442 2.164c-.205.37-.636.688-.904.86z" fill="#F7FCFF"/>
      <path fill-rule="evenodd" clip-rule="evenodd" d="M17.362 17.199l.562.335-.684.243-.237.639-.387-.504-.708.06.446-.554-.202-.602.662.161.584-.431-.036.653zm-6.259-2.242a.406.406 0 01-.292-.758l1.668-.651a.413.413 0 11.298.77l-1.674.64z" fill="#FECA00"/>
      <path d="M13.663 9.765a.245.245 0 01-.149-.31c.043-.127.242-.34.366-.297l1.736.607a.24.24 0 01.16.21l.156 1.904c.01.135-.185.243-.316.254a.24.24 0 01-.257-.222l-.144-1.638-1.552-.508z" fill="#FECA00"/>
      <path d="M16.68 8.768c.104-.083.29.013.37.119a.247.247 0 01-.041.342l-1.203 1.233c-.103.082-.337-.079-.417-.185-.081-.106-.104-.396 0-.479l1.292-1.03z" fill="#FECA00"/>
    </g>
  </g>
</svg>
